assets/symbols/mulberry/electric_charger.svg

<svg height="850.394" viewBox="0 0 850.394 850.394" width="850.394" xmlns="http://www.w3.org/2000/svg"><path d="m630.6 402.69-70.06 5.39-14.66 1.13v-323.51l201.07 23.2v284.84zm-465.58-249.97v69.6c0 8.54-6.92 15.47-15.47 15.47h-20.62c-8.54 0-15.47-6.93-15.47-15.47v-69.6c0-8.54 6.93-15.46 15.47-15.46h20.62c8.55 0 15.47 6.92 15.47 15.46z" fill="#7a7878"/><path d="m429.88 133.39h113.42v198.49h-113.42zm200.72 269.3-40.58 136.05h-29.48v-130.66z" fill="#231f20"/><g fill="none"><g stroke="#231f20" stroke-width="21"><path d="m293.26 176.57h131.47m-133.41 115.36h131.46" stroke-linecap="round" stroke-linejoin="round"/><path d="m429.88 133.39h113.42v198.49h-113.42zm130.66 274.69-14.66 1.13v-323.51l201.07 23.2v284.84l-116.35 8.95z"/><path d="m560.54 405.83v132.91h29.48l40.58-136.05.51-1.7"/><path d="m139.88 70.23v67.03m25.14 85.06c0 8.54-6.92 15.47-15.47 15.47h-20.62c-8.54 0-15.47-6.93-15.47-15.47v-69.6c0-8.54 6.93-15.46 15.47-15.46h20.62c8.55 0 15.47 6.92 15.47 15.46zm-28.36 18.69s-56.06 484.3 22.24 526.83 83.13-144.03 60.9-248.43c-22.24-104.4-28.55-177.09 15.46-179.8 62.83-3.87 65.97 252.88 94.73 324.8 36.74 91.83 116.97 148.859 187.54 81.2 70.56-67.67 56.06-204.94 56.06-204.94" stroke-linecap="round" stroke-linejoin="round"/></g><path d="m0 0h850.394v850.394h-850.394z"/></g></svg>

<svg xmlns="http://www.w3.org/2000/svg" width="850.394" height="850.394" viewBox="0 0 850.394 850.394" overflow="visible"><path fill="#7a7878" d="M630.6 402.69l-70.06 5.39-14.66 1.13V85.7l201.07 23.2v284.84zM165.02 152.72v69.6c0 8.54-6.92 15.47-15.47 15.47h-20.62c-8.54 0-15.47-6.93-15.47-15.47v-69.6c0-8.54 6.93-15.46 15.47-15.46H149.55c8.55 0 15.47 6.92 15.47 15.46z"/><path fill="#231f20" d="M429.88 133.39H543.3v198.49H429.88zM630.6 402.69l-40.58 136.05h-29.48V408.08z"/><g fill="none" stroke="#231f20" stroke-width="21"><path stroke-linecap="round" stroke-linejoin="round" d="M293.26 176.57h131.47M291.32 291.93h131.46"/><path d="M429.88 133.39H543.3v198.49H429.88zM560.54 408.08l-14.66 1.13V85.7l201.07 23.2v284.84l-116.35 8.95z"/><path d="M560.54 405.83v132.91h29.48l40.58-136.05.51-1.7"/><path stroke-linecap="round" stroke-linejoin="round" d="M139.88 70.23v67.03M165.02 222.32c0 8.54-6.92 15.47-15.47 15.47h-20.62c-8.54 0-15.47-6.93-15.47-15.47v-69.6c0-8.54 6.93-15.46 15.47-15.46H149.55c8.55 0 15.47 6.92 15.47 15.46v69.6zM136.66 241.01S80.6 725.31 158.9 767.84c78.3 42.53 83.13-144.03 60.9-248.43-22.24-104.4-28.55-177.09 15.46-179.8 62.83-3.87 65.97 252.88 94.73 324.8 36.74 91.83 116.97 148.859 187.54 81.2 70.56-67.67 56.06-204.94 56.06-204.94"/></g><path fill="none" d="M0 0h850.394v850.394H0z"/></svg>
